X:1
T:The Friendship of Jesus
T:The Friendship of Jesus
T:Charles Hutchinson Gabriel
T:Ida M. Budd, 1898
T:Public Domain Courtesy of the Cyber Hymnal™
T:Public Domain Courtesy of the Cyber Hymnal™
C:Charles Hutchinson Gabriel
Z:Public Domain
Z:Courtesy of the Cyber Hymnal™
%%score ( 1 2 ) ( 3 4 )
L:1/8
Q:1/4=90
M:6/8
K:Bb
V:1 treble 
V:2 treble 
V:3 bass 
V:4 bass 
V:1
 [DF][DF][DF] [EG][DF][CE] | [B,D][DF][DB] [Fd]2 [FB] | ([GB][^FA])[GB] [Ac][GB][EG] | %3
w: 1.~Have you ac- ept- ed the|friend- ship of Je- sus?|Do * you walk with Him|
w: 2.~Dear as a moth- er, or|sis- ter or bro- ther,|To * His in- fi- nite|
w: 3.~Ser- vants no long- er, but|friends He doth call us,|If * we do what His|
 ([EG][DF])[B,D] [A,C]3 | [DF][DF][DF] [EG][DF][CE] | [B,D][DF][DB] [Fd]2 [FB] | %6
w: day * by day,|Rest- ing se- cure in His|bless- èd as- sur- ance,|
w: heart * of love,|Is He that do- eth the|will of the Fa- ther,|
w: love * com- mands,|Yes- ter- day, now, and for|ev- er His prom- ise,|
 [Ec][Ec][Ec] [DB][DB][EA] | [DB]3- [DB]2 z ||"^Refrain" [Fd]2 [EB] [Fd]3 | (cB)[EG] [DF]3 | %10
w: “Lo, I am with you al-|way?” *|||
w: Seek- ing for strength from a-|bove. *|By and by,|by * and by,|
w: Fixed and un- change- a- ble|stands. *|||
 [DB]2 [DB] [=EB][EA][EB] | [Fc]2 [Fd] [Fc]3 | [Fd]2 [Fd] [Fd][Fc][FB] | [GB][^FA][GB] (cB)[EG] | %14
w: ||||
w: They who walk with Him|here be- low,|In His glor- i- fied|like- ness a- wak- * ing,|
w: ||||
 [DF][DF][DF] [EF][EG][EA] | [DB]3- [DB]2 z |] %16
w: ||
w: As they are known, shall they|know. *|
w: ||
V:2
 x6 | x6 | x6 | x6 | x6 | x6 | x6 | x6 || x6 | E2 x4 | x6 | x6 | x6 | x3 G2 x | x6 | x6 |] %16
V:3
 [B,,B,][B,,B,][B,,B,] [B,,B,][B,,B,][B,,F,] | [B,,F,][B,,B,][B,,F,] [B,,B,]2 [D,B,] | %2
w: ~ ~ ~ ~ ~ ~|~ ~ ~ ~ ~|
 [E,B,]2 [E,B,] [E,B,][E,B,][E,B,] | [B,,B,]2 [D,F,] F,3 | %4
w: ~ ~ ~ ~ ~|~ ~ ~|
 [B,,B,][B,,B,][B,,B,] [B,,B,][B,,B,][B,,F,] | [B,,F,][B,,B,][B,,F,] [B,,B,]2 [D,B,] | %6
w: ~ ~ ~ ~ ~ ~|~ ~ ~ ~ ~|
 [E,G,][E,G,][E,G,] F,F,[F,,F,] | [B,,F,]3- [B,,F,]2 z || [B,,B,]2 [B,,F,] [B,,B,][B,,B,][B,,B,] | %9
w: ~ ~ ~ ~ ~ ~|~ *|~ ~ ~ in the|
 [E,G,][E,G,][E,B,] [B,,B,]2 [B,,B,] | [G,B,]2 [G,B,] [C,C][C,C][C,B,] | [F,A,]2 [F,B,] [F,A,]3 | %12
w: home o- ver yon- der,|||
 [B,,B,]2 [B,,B,] [B,,B,][C,A,][D,B,] | [E,B,][E,B,][E,B,] [E,E]2 [E,B,] | %14
w: ||
 [F,B,][F,B,][F,B,] [F,,F,][F,,F,][F,,F,] | [B,,F,]3- [B,,F,]2 z |] %16
w: ||
V:4
 x6 | x6 | x6 | x3 F,3 | x6 | x6 | x3 F,F, x | x6 || x6 | x6 | x6 | x6 | x6 | x6 | x6 | x6 |] %16

